_inc/systems/logos/pokemini.svg

<?xml version="1.0" encoding="utf-8"?>
<svg viewBox="0 0 264 36" xmlns="http://www.w3.org/2000/svg">
  <path d="M 33.899 12.062 C 31.858 12.059 23.686 12.714 23.686 23.958 C 23.686 36.805 34.35 35.976 34.35 35.976 C 34.35 35.976 44.768 35.867 44.768 23.958 C 44.768 12.048 34.467 12.072 34.35 12.062 C 34.35 12.062 34.19 12.064 33.899 12.062 Z M 34.35 18.155 C 34.35 18.155 38.165 17.533 38.165 23.958 C 38.165 29.907 34.35 29.263 34.35 29.263 C 34.35 29.263 30.372 29.307 30.372 23.958 C 30.372 17.51 34.35 18.23 34.35 18.155 Z" id="path3667" style="fill-opacity: 1; stroke: none; stroke-width: 5.91784; stroke-linecap: butt; stroke-linejoin: round; stroke-miterlimit: 4; stroke-dasharray: none; stroke-opacity: 1; paint-order: markers stroke; fill: rgb(255, 255, 255);"/>
  <path d="M 48.845 2.679 L 55.524 2.679 L 55.524 20.874 L 60.693 12.066 L 67.829 12.066 L 60.693 22.614 L 67.829 35.993 L 60.693 35.993 L 55.524 24.857 L 55.524 35.993 L 48.845 35.993 Z" id="path3678" style="fill-opacity: 1; stroke: none; stroke-width: 5.91784; stroke-linecap: butt; stroke-linejoin: round; stroke-miterlimit: 4; stroke-dasharray: none; stroke-opacity: 1; paint-order: markers stroke; fill: rgb(255, 255, 255);"/>
  <path d="M 71.914 5.92 L 74.438 9.526 L 84.038 3.722 L 81.079 0 L 72.029 5.862 L 71.914 5.92 Z" id="path3711" style="fill-opacity: 1; stroke: none; stroke-width: 5.91784; stroke-linecap: butt; stroke-linejoin: round; stroke-miterlimit: 4; stroke-dasharray: none; stroke-opacity: 1; paint-order: markers stroke; fill: rgb(255, 255, 255);"/>
  <path d="M 92.299 35.993 L 98.205 35.993 L 98.205 22.241 C 98.205 22.241 98.451 18.625 101.486 18.625 C 104.521 18.625 104.521 22.241 104.521 22.241 L 104.521 35.993 L 110.099 35.993 L 110.099 22.241 C 110.099 22.241 110.223 18.625 113.259 18.625 C 116.293 18.625 116.293 22.241 116.293 22.241 L 116.293 35.993 L 122.076 35.993 L 122.076 18.625 C 122.076 18.625 122.487 12.066 116.293 12.066 C 110.099 12.066 110.099 15.968 110.099 15.968 C 110.099 15.968 110.838 12.066 104.521 12.066 C 98.205 12.066 98.205 15.968 98.205 15.968 C 98.205 15.968 99.107 12.066 95.703 12.066 C 92.299 12.066 92.299 12.066 92.299 12.066 Z" id="path3727" style="fill-opacity: 1; stroke: none; stroke-width: 5.91784; stroke-linecap: butt; stroke-linejoin: round; stroke-miterlimit: 4; stroke-dasharray: none; stroke-opacity: 1; paint-order: markers stroke; fill: rgb(255, 255, 255);"/>
  <path d="M 136.171 12.076 C 134.13 12.072 125.959 12.728 125.959 23.969 C 125.959 36.818 136.623 35.989 136.623 35.989 C 136.623 35.989 147.042 35.879 147.042 23.969 C 147.042 12.061 136.74 12.083 136.623 12.076 C 136.623 12.076 136.463 12.076 136.171 12.076 Z M 136.623 18.167 C 136.623 18.167 140.437 17.546 140.437 23.969 C 140.437 29.92 136.623 29.275 136.623 29.275 C 136.623 29.275 132.645 29.321 132.645 23.969 C 132.645 17.524 136.623 18.243 136.623 18.167 Z" id="path3667-1" style="fill-opacity: 1; stroke: none; stroke-width: 5.91784; stroke-linecap: butt; stroke-linejoin: round; stroke-miterlimit: 4; stroke-dasharray: none; stroke-opacity: 1; paint-order: markers stroke; fill: rgb(255, 255, 255);"/>
  <path d="M 150.742 35.993 L 157.181 35.993 L 157.181 22.241 C 157.181 22.241 157.017 18.625 160.586 18.625 C 164.155 18.625 164.155 22.241 164.155 22.241 L 164.155 35.993 L 170.142 35.993 L 170.142 18.625 C 170.142 18.625 170.183 12.066 164.155 12.066 C 158.125 12.066 157.181 15.968 157.181 15.968 C 157.181 15.968 157.756 12.066 155.376 12.066 C 152.998 12.066 150.742 12.066 150.742 12.066 Z" id="path3759" style="fill-opacity: 1; stroke: none; stroke-width: 5.91784; stroke-linecap: butt; stroke-linejoin: round; stroke-miterlimit: 4; stroke-dasharray: none; stroke-opacity: 1; paint-order: markers stroke; fill: rgb(255, 255, 255);"/>
  <path d="M 185.01 12.066 L 212.649 12.066 C 212.649 12.066 215.317 11.963 215.317 14.615 C 215.317 17.268 215.317 34.611 215.317 34.611 C 215.317 34.611 215.376 35.993 214.041 35.993 C 212.708 35.993 210.04 35.993 210.04 35.993 C 210.04 35.993 208.705 35.96 208.705 34.611 C 208.705 33.264 208.705 22.241 208.705 22.241 C 208.705 22.241 208.589 20.662 207.429 20.662 C 206.269 20.662 203.427 20.662 203.427 20.662 C 203.427 20.662 202.092 20.506 202.092 22.241 C 202.092 23.976 202.092 34.611 202.092 34.611 C 202.092 34.611 201.918 35.993 200.759 35.993 C 199.598 35.993 196.988 35.993 196.988 35.993 C 196.988 35.993 195.537 36.077 195.537 34.611 C 195.537 33.146 195.537 22.241 195.537 22.241 C 195.537 22.241 195.943 20.662 194.145 20.662 C 192.347 20.662 190.375 20.662 190.375 20.662 C 190.375 20.662 189.04 20.506 189.04 22.241 C 189.04 23.976 189.04 34.611 189.04 34.611 C 189.04 34.611 189.04 35.993 187.707 35.993 C 186.372 35.993 183.705 35.993 183.705 35.993 C 183.705 35.993 182.486 35.9 182.486 34.611 C 182.486 33.322 182.486 14.615 182.486 14.615 C 182.486 14.615 182.545 12.259 185.01 12.066 Z" id="path3775" style="fill-opacity: 1; stroke: none; stroke-width: 5.91784; stroke-linecap: butt; stroke-linejoin: round; stroke-miterlimit: 4; stroke-dasharray: none; stroke-opacity: 1; paint-order: markers stroke; fill: rgb(255, 255, 255);"/>
  <path d="M 225.752 23.976 C 225.752 23.976 227.036 23.878 227.036 25.256 C 227.036 26.633 227.036 34.611 227.036 34.611 C 227.036 34.611 226.9 35.993 225.794 35.993 C 224.686 35.993 223.086 35.993 223.086 35.993 C 223.086 35.993 221.757 35.957 221.757 34.611 C 221.757 33.265 221.757 25.256 221.757 25.256 C 221.757 25.256 221.814 23.976 223.127 23.976 C 224.439 23.976 225.671 24.023 225.752 23.976 Z" id="path3787" style="fill-opacity: 1; stroke: none; stroke-width: 5.91784; stroke-linecap: butt; stroke-linejoin: round; stroke-miterlimit: 4; stroke-dasharray: none; stroke-opacity: 1; paint-order: markers stroke; fill: rgb(255, 255, 255);"/>
  <path d="M 223.127 19.958 C 223.127 19.958 221.757 19.983 221.757 18.625 C 221.757 17.268 221.757 14.615 221.757 14.615 C 221.757 14.615 221.754 13.289 223.148 13.289 C 224.542 13.289 225.773 13.289 225.773 13.289 C 225.773 13.289 227.036 13.262 227.036 14.615 C 227.036 15.968 227.036 18.625 227.036 18.625 C 227.036 18.625 227.167 19.958 225.794 19.958 C 224.42 19.958 223.169 19.94 223.127 19.958 Z" id="path3789" style="fill-opacity: 1; stroke: none; stroke-width: 5.91784; stroke-linecap: butt; stroke-linejoin: round; stroke-miterlimit: 4; stroke-dasharray: none; stroke-opacity: 1; paint-order: markers stroke; fill: rgb(255, 255, 255);"/>
  <path d="M 233.586 34.611 C 233.586 34.611 233.627 35.993 234.94 35.993 C 236.252 35.993 238.796 35.993 238.796 35.993 C 238.796 35.993 240.149 35.916 240.149 34.611 C 240.149 33.307 240.149 22.241 240.149 22.241 C 240.149 22.241 240.19 20.662 241.462 20.662 C 242.733 20.662 245.399 20.662 245.399 20.662 C 245.399 20.662 246.752 20.506 246.752 22.241 C 246.752 23.976 246.752 34.611 246.752 34.611 C 246.752 34.611 246.671 35.993 248.065 35.993 C 249.46 35.993 250.732 35.993 250.732 35.993 C 250.732 35.993 251.962 35.916 251.962 34.611 C 251.962 33.307 251.962 15.968 251.962 15.968 C 251.962 15.968 251.921 13.289 249.337 13.289 C 246.752 13.289 236.252 13.289 236.252 13.289 C 236.252 13.289 233.586 13.312 233.586 15.968 C 233.586 18.625 233.71 34.757 233.586 34.611 Z" id="path3807" style="fill-opacity: 1; stroke: none; stroke-width: 5.91784; stroke-linecap: butt; stroke-linejoin: round; stroke-miterlimit: 4; stroke-dasharray: none; stroke-opacity: 1; paint-order: markers stroke; fill: rgb(255, 255, 255);"/>
  <path d="M 262.714 23.976 C 262.714 23.976 263.997 23.878 263.997 25.256 C 263.997 26.633 263.997 34.611 263.997 34.611 C 263.997 34.611 263.863 35.993 262.755 35.993 C 261.647 35.993 260.048 35.993 260.048 35.993 C 260.048 35.993 258.719 35.957 258.719 34.611 C 258.719 33.265 258.719 25.256 258.719 25.256 C 258.719 25.256 258.777 23.976 260.089 23.976 C 261.402 23.976 262.632 24.023 262.714 23.976 Z" id="path3787-7" style="fill-opacity: 1; stroke: none; stroke-width: 5.91784; stroke-linecap: butt; stroke-linejoin: round; stroke-miterlimit: 4; stroke-dasharray: none; stroke-opacity: 1; paint-order: markers stroke; fill: rgb(255, 255, 255);"/>
  <path d="M 260.089 19.958 C 260.089 19.958 258.719 19.983 258.719 18.625 C 258.719 17.268 258.719 14.615 258.719 14.615 C 258.719 14.615 258.716 13.289 260.11 13.289 C 261.504 13.289 262.735 13.289 262.735 13.289 C 262.735 13.289 263.997 13.262 263.997 14.615 C 263.997 15.968 263.997 18.625 263.997 18.625 C 263.997 18.625 264.129 19.958 262.755 19.958 C 261.381 19.958 260.13 19.94 260.089 19.958 Z" id="path3789-4" style="fill-opacity: 1; stroke: none; stroke-width: 5.91784; stroke-linecap: butt; stroke-linejoin: round; stroke-miterlimit: 4; stroke-dasharray: none; stroke-opacity: 1; paint-order: markers stroke; fill: rgb(255, 255, 255);"/>
  <path d="M 78.617 12.062 C 70.739 12.062 68.937 18.14 68.937 23.958 C 68.937 29.776 72.422 35.976 79.15 35.976 C 85.879 35.976 86.492 34.609 86.492 34.609 L 86.492 30.588 C 86.445 30.574 80.983 30.588 78.084 30.588 C 75.183 30.588 75.745 26.651 75.745 26.651 L 88.256 26.651 L 88.256 22.258 C 88.256 22.258 88.259 12.062 78.617 12.062 Z M 79.068 17.285 C 82.396 17.285 82.431 18.611 82.431 18.611 L 82.431 22.258 L 75.745 22.258 L 75.745 18.611 C 75.745 18.611 75.74 17.285 79.068 17.285 Z" id="path3696" style="fill-opacity: 1; stroke: none; stroke-width: 5.91784; stroke-linecap: butt; stroke-linejoin: round; stroke-miterlimit: 4; stroke-dasharray: none; stroke-opacity: 1; paint-order: markers stroke; fill: rgb(255, 255, 255);"/>
  <path d="M 0 4.52 L 0 35.976 L 7.383 35.976 L 7.383 24.868 L 13.125 24.868 C 13.125 24.868 20.549 24.247 20.549 18.155 L 20.549 12.062 C 20.549 12.062 20.503 4.52 13.125 4.52 C 5.821 4.52 0.032 4.625 0 4.52 Z M 7.383 10.612 C 7.394 10.614 10.149 10.612 11.321 10.612 C 13.342 11.216 13.125 13.307 13.125 13.307 L 13.125 15.959 C 13.125 18.164 11.321 18.611 11.321 18.611 L 7.383 18.611 Z" id="path2870" style="fill-opacity: 1; stroke: none; stroke-width: 5.91784; stroke-linecap: butt; stroke-linejoin: round; stroke-miterlimit: 4; stroke-dasharray: none; stroke-opacity: 1; paint-order: markers stroke; fill: rgb(255, 255, 255);"/>
</svg>

<svg xmlns="http://www.w3.org/2000/svg" viewBox="0 0 264 36"><path d="M33.9 12.06c-2.04 0-10.21.65-10.21 11.9 0 12.85 10.66 12.02 10.66 12.02s10.42-.11 10.42-12.02-10.3-11.89-10.42-11.9zm.45 6.1s3.81-.63 3.81 5.8c0 5.95-3.81 5.3-3.81 5.3s-3.98.05-3.98-5.3c0-6.45 3.98-5.73 3.98-5.8m14.5-15.48h6.67v18.2l5.17-8.81h7.14L60.69 22.6 67.83 36h-7.14l-5.17-11.13V36h-6.68Zm23.06 3.24 2.53 3.6 9.6-5.8L81.08 0l-9.05 5.86zM92.3 36h5.9V22.23s.25-3.61 3.29-3.61c3.03 0 3.03 3.61 3.03 3.61V36h5.58V22.24s.12-3.61 3.16-3.61c3.03 0 3.03 3.61 3.03 3.61V36h5.79V18.62s.4-6.55-5.79-6.55-6.2 3.9-6.2 3.9.75-3.9-5.57-3.9c-6.31 0-6.31 3.9-6.31 3.9s.9-3.9-2.5-3.9H92.3Zm43.87-23.92c-2.04 0-10.21.65-10.21 11.89 0 12.85 10.66 12.02 10.66 12.02s10.42-.11 10.42-12.02-10.3-11.89-10.42-11.9zm.45 6.09s3.82-.62 3.82 5.8c0 5.95-3.82 5.3-3.82 5.3s-3.97.05-3.97-5.3c0-6.45 3.97-5.73 3.97-5.8M150.74 36h6.44V22.23s-.16-3.61 3.4-3.61 3.57 3.61 3.57 3.61V36h6V18.62s.03-6.55-6-6.55-6.97 3.9-6.97 3.9.58-3.9-1.8-3.9h-4.64Zm34.27-23.93h27.64s2.67-.1 2.67 2.55v20s.06 1.37-1.28 1.37h-4s-1.33-.03-1.33-1.38V22.24s-.12-1.58-1.28-1.58h-4s-1.34-.15-1.34 1.58v12.37s-.17 1.38-1.33 1.38h-3.77s-1.45.09-1.45-1.38V22.24s.4-1.58-1.4-1.58h-3.76s-1.34-.15-1.34 1.58v12.37s0 1.38-1.33 1.38h-4s-1.22-.09-1.22-1.38v-20s.05-2.35 2.52-2.54m40.74 11.91s1.29-.1 1.29 1.28v9.35S226.9 36 225.79 36h-2.7s-1.33-.03-1.33-1.38v-9.35s.05-1.28 1.37-1.28c1.3 0 2.54.04 2.62 0m-2.62-4.03s-1.37.02-1.37-1.34v-4s0-1.33 1.39-1.33h2.62s1.27-.03 1.27 1.33v4s.13 1.34-1.25 1.34-2.62-.02-2.66 0m10.46 14.65s.04 1.38 1.35 1.38h3.86s1.35-.07 1.35-1.38V22.24s.04-1.58 1.31-1.58h3.94s1.35-.15 1.35 1.58v12.37s-.08 1.38 1.31 1.38h2.67s1.23-.07 1.23-1.38V15.97s-.04-2.68-2.62-2.68h-13.09s-2.66.02-2.66 2.68c0 2.65.12 18.79 0 18.64m29.12-10.63s1.29-.1 1.29 1.28v9.35s-.14 1.38-1.25 1.38h-2.7s-1.33-.03-1.33-1.38v-9.35s.06-1.28 1.37-1.28 2.54.04 2.62 0m-2.62-4.02s-1.37.02-1.37-1.34v-4s0-1.33 1.39-1.33h2.63s1.26-.03 1.26 1.33v4s.13 1.34-1.25 1.34-2.62-.02-2.66 0m-181.47-7.9c-7.88 0-9.68 6.08-9.68 11.9s3.48 12.02 10.21 12.02 7.34-1.37 7.34-1.37v-4.02c-.05-.02-5.5 0-8.4 0s-2.34-3.94-2.34-3.94h12.5v-4.4s0-10.19-9.63-10.19m.45 5.23c3.33 0 3.36 1.32 3.36 1.32v3.65h-6.69V18.6s0-1.32 3.33-1.32M0 4.52v31.46h7.38V24.87h5.75s7.42-.62 7.42-6.71v-6.1s-.05-7.54-7.43-7.54c-7.3 0-13.09.1-13.12 0m7.38 6.1h3.94c2.02.6 1.8 2.69 1.8 2.69v2.65c0 2.2-1.8 2.65-1.8 2.65H7.38Z" style="fill-opacity:1;stroke:none;stroke-width:5.91784;stroke-linecap:butt;stroke-linejoin:round;stroke-miterlimit:4;stroke-dasharray:none;stroke-opacity:1;paint-order:markers stroke;fill:#fff"/></svg>
